StripePaymentsUI/StripePaymentsUI/Resources/StripePaymentsUI.xcassets/Cards/stp_card_diners.imageset/icon-card-diners-club.svg

<svg fill="none" height="17" viewBox="0 0 26 17" width="26" xmlns="http://www.w3.org/2000/svg"><path d="m22.2099 16.9999h-20.42198c-.46978.004-.92169-.1844-1.256572-.5231-.336538-.3404-.52743184-.8045-.53133951-1.2877l-.00000849-12.37609c.00391616-.48534.19481-.9494.531348-1.28979.334882-.33873.786782-.527137 1.258712-.52315l20.42204-.00001c.4698-.003977.9217.18443 1.2565.52316.3366.34039.5275.80445.5314 1.28769v12.38369c-.0061.5039-.2093.9579-.5339 1.2849-.323.3253-.7663.5246-1.2562.5204z" fill="#fff"/><path d="m22.2121 16.7499h-.0022-20.42198-.00212c-.40105.0034-.788418-.1573-1.076671-.4489-.289822-.2931-.455483-.6942-.459121-1.113-.000002-.0003-.000005-.0006-.000008-.0009v-12.37304c.003647-.42105.16941-.82204.459129-1.11508.288137-.29144.675461-.45233 1.078811-.44892v.00001h.00212 20.42204l.0021-.00002c.401-.00339.7884.15737 1.0767.44893.2898.29316.4555.69422.4591 1.11304v.00091 12.38017c-.0057.4369-.1818.8287-.4613 1.1102-.2783.2803-.6578.4502-1.0766.4466z" stroke="#000" stroke-opacity=".2" stroke-width=".5"/><path d="m10.0621 3.016v-.016h4v.016c3.1354.22944 5.5621 2.84018 5.5621 5.984 0 3.1438-2.4267 5.7546-5.5621 5.984v.016h-4v-.016c-3.13542-.2294-5.5621-2.8402-5.5621-5.984 0-3.14382 2.42668-5.75456 5.5621-5.984z" fill="#0165ac"/><path d="m11.6621 12.392c1.4353-.5103 2.3941-1.8687 2.3941-3.39201 0-1.5233-.9588-2.88171-2.3941-3.392zm-2.39995-6.78401c-1.43529.51029-2.39405 1.8687-2.39405 3.392 0 1.52331.95876 2.88171 2.39405 3.39201zm1.19995 8.59201c-2.87183 0-5.19995-2.3281-5.19995-5.20001 0-2.87188 2.32812-5.2 5.19995-5.2 2.8719 0 5.2 2.32812 5.2 5.2 0 2.87191-2.3281 5.20001-5.2 5.20001z" fill="#fff"/></svg>

<svg width="26" height="17" viewBox="0 0 26 17" fill="none" xmlns="http://www.w3.org/2000/svg">
<path d="M22.2099 16.9999L1.78792 16.9999C1.31814 17.0039 0.86623 16.8155 0.531348 16.4768C0.19481 16.1364 0.00391616 15.6723 8.49175e-06 15.1891L0 2.81301C0.00391616 2.32767 0.19481 1.86361 0.531348 1.52322C0.86623 1.18449 1.31813 0.996083 1.79006 1.00007L22.2121 1.00006C22.6819 0.996083 23.1338 1.18449 23.4686 1.52322C23.8052 1.86361 23.9961 2.32767 24 2.81091L24 15.1946C23.9939 15.6985 23.7907 16.1525 23.4661 16.4795C23.1431 16.8048 22.6998 17.0041 22.2099 16.9999Z" fill="white"/>
<path d="M22.2121 16.7499H22.2099H1.78792L1.7858 16.7499C1.38475 16.7533 0.997382 16.5926 0.709129 16.301C0.419307 16.0079 0.253646 15.6068 0.250008 15.188C0.250006 15.1877 0.250003 15.1874 0.25 15.1871L0.25 2.81406C0.253647 2.39301 0.41941 1.99202 0.709129 1.69898C0.997266 1.40754 1.38459 1.24665 1.78794 1.25006V1.25007H1.79006L22.2121 1.25007L22.2142 1.25005C22.6152 1.24666 23.0026 1.40742 23.2909 1.69898C23.5807 1.99214 23.7464 2.3932 23.75 2.81202C23.75 2.81232 23.75 2.81262 23.75 2.81293L23.75 15.1931C23.7443 15.63 23.5682 16.0218 23.2887 16.3033C23.0104 16.5836 22.6309 16.7535 22.2121 16.7499Z" stroke="black" stroke-opacity="0.2" stroke-width="0.5"/>
<path d="M10.0621 3.016V3H14.0621V3.016C17.1975 3.24544 19.6242 5.85618 19.6242 9C19.6242 12.1438 17.1975 14.7546 14.0621 14.984V15H10.0621V14.984C6.92668 14.7546 4.5 12.1438 4.5 9C4.5 5.85618 6.92668 3.24544 10.0621 3.016Z" fill="#0165AC"/>
<path d="M11.6621 12.392C13.0974 11.8817 14.0562 10.5233 14.0562 8.99999C14.0562 7.47669 13.0974 6.11828 11.6621 5.60799V12.392ZM9.26215 5.60799C7.82686 6.11828 6.8681 7.47669 6.8681 8.99999C6.8681 10.5233 7.82686 11.8817 9.26215 12.392V5.60799ZM10.4621 14.2C7.59027 14.2 5.26215 11.8719 5.26215 8.99999C5.26215 6.12811 7.59027 3.79999 10.4621 3.79999C13.334 3.79999 15.6621 6.12811 15.6621 8.99999C15.6621 11.8719 13.334 14.2 10.4621 14.2Z" fill="white"/>
</svg>
